X: 23316
T: Leg Of The Duck, The
R: jig
M: 6/8
K: Gmajor
|:DGG GAG|FEF Ddc|B3 GB/c/d|cAG FEF|
DGG GAG|FEF DBc|ded cAF|AGF G3:|
|:dgg def|dgg cBc|dgg def|GFG ABc|
def g3|agf g2e|fed cAF|AGF G3:|

